archcraft-icons-qogir/files/Qogir/scalable/mimetypes/text-x-csharp.svg

<svg width="64" height="64" version="1.1" viewBox="0 0 16.933 16.933" xmlns="http://www.w3.org/2000/svg">
 <g transform="matrix(.26458 0 0 .26458 0 -261.5)">
  <path d="m8.991 989.37 46.01 4e-3v57.985h-46.009v-57.989z" fill="#fafafa"/>
  <path transform="matrix(1.3428 0 0 1.3408 -.228 988.19)" d="m6.5 0.5 35 3e-3v44.003h-35z" fill="none" stroke="#4f6698" stroke-linejoin="round" stroke-opacity=".267" stroke-width=".745"/>
  <rect y="988.36" width="64" height="64" rx="0" ry="0" fill="none" opacity=".75"/>
 </g>
 <path d="m5.8207 6.3499s-1.0583 0-1.0583 1.0583v2.1166c0 1.0583 1.0583 1.0583 1.0583 1.0583h1.5875v-0.52916h-1.5875s-0.52916 0-0.52916-0.52916v-2.1166c0-0.52916 0.52916-0.52916 0.52916-0.52916h1.5875v-0.52916zm3.1749 0v1.0583h-1.0583v0.52916h1.0583v1.0583h-1.0583v0.52916h1.0583v1.0583h0.52916v-1.0583h1.0583v1.0583h0.52916v-1.0583h1.0583v-0.52916h-1.0583v-1.0583h1.0583v-0.52916h-1.0583v-1.0583h-0.52916v1.0583h-1.0583v-1.0583zm0.52916 1.5875h1.0583v1.0583h-1.0583z" color="#000000" fill="#8c59d9" style="text-decoration-line:none;text-indent:0;text-transform:none"/>
</svg>

<svg xmlns="http://www.w3.org/2000/svg" width="64" height="64" viewBox="0 0 16.933 16.933"><g transform="translate(0 -261.5) scale(.26458)"><path fill="#fafafa" d="m8.991 989.37 46.01.004v57.985H8.992V989.37z"/><path fill="none" stroke="#4f6698" stroke-linejoin="round" stroke-opacity=".267" stroke-width=".745" d="m6.5.5 35 .003v44.003h-35z" transform="matrix(1.3428 0 0 1.3408 -.228 988.19)"/><rect width="64" height="64" y="988.36" fill="none" opacity=".75" rx="0" ry="0"/></g><path fill="#8c59d9" d="M5.82 6.35s-1.058 0-1.058 1.058v2.117c0 1.058 1.059 1.058 1.059 1.058h1.587v-.53H5.821s-.53 0-.53-.528V7.408c0-.529.53-.529.53-.529h1.587v-.53zm3.176 0v1.058H7.937v.53h1.059v1.058H7.937v.529h1.059v1.058h.529V9.525h1.058v1.058h.53V9.525h1.058v-.53h-1.059V7.938h1.059v-.529h-1.059V6.35h-.529v1.058H9.525V6.35zm.529 1.587h1.058v1.059H9.525z" color="#000" style="text-decoration-line:none;text-indent:0;text-transform:none"/></svg>
